X:83
T:Penny on the Drum
Z:Jack Campin, http://www.campin.me.uk/
F:Jack Campin's Nine-Note Tunebook
% last edit 03-02-2013
G:Butlins holiday camp closing time song
C:as sung by Stanley Holloway 
M:C
L:1/4
Q:1/2=116
K:F
CC|F2FF|FFGF|G4- |G2CC|G2GG|GGFG|A4- |A3
 A|BBBB|Bd2B|AAAA|Ac2A|G2GG|GBAG|F4- |F2||
cc|c4  |A2AA|A4  |F2FF|G3 G|F2G2|A4  |c2
cc|c4  |A2AA|A4  |F2FF|G3 B|A3 G|F2z2|z2|]

